svg/aws-ec2-z1d.svg

<?xml version="1.0" encoding="UTF-8"?>
<svg xmlns="http://www.w3.org/2000/svg" xmlns:xlink="http://www.w3.org/1999/xlink" width="32" height="32" viewBox="0 0 32 32">
<path fill-rule="evenodd" fill="rgb(83.137255%, 35.686275%, 2.745098%)" fill-opacity="1" d="M 20.023438 15.777344 C 20.21875 15.511719 20.527344 15.378906 20.941406 15.378906 C 21.328125 15.378906 21.679688 15.492188 21.996094 15.714844 L 21.996094 18.28125 C 21.648438 18.519531 21.289062 18.636719 20.925781 18.636719 C 20.125 18.636719 19.730469 18.089844 19.730469 16.992188 C 19.730469 16.445312 19.828125 16.039062 20.023438 15.777344 M 20.578125 19.503906 C 21.132812 19.503906 21.621094 19.316406 22.042969 18.945312 L 22.15625 19.402344 L 23.097656 19.402344 L 23.097656 12.496094 L 21.996094 12.496094 L 21.996094 14.996094 C 21.613281 14.679688 21.128906 14.511719 20.632812 14.511719 C 20.21875 14.511719 19.855469 14.621094 19.550781 14.832031 C 19.246094 15.046875 19.011719 15.34375 18.851562 15.726562 C 18.691406 16.105469 18.609375 16.542969 18.609375 17.039062 C 18.609375 17.792969 18.789062 18.394531 19.144531 18.835938 C 19.503906 19.28125 19.980469 19.503906 20.578125 19.503906 M 15.660156 14.035156 L 13.914062 14.6875 L 13.914062 13.792969 L 15.761719 12.933594 L 16.769531 12.933594 L 16.769531 19.402344 L 15.660156 19.402344 Z M 12.765625 19.402344 L 8.902344 19.402344 L 8.902344 18.589844 L 11.554688 15.492188 L 8.996094 15.492188 L 8.996094 14.652344 L 12.738281 14.652344 L 12.738281 15.464844 L 10.085938 18.5625 L 12.765625 18.5625 Z M 6 26 L 26 26 L 26 6 L 6 6 Z M 30.667969 8.667969 L 30.667969 7.332031 L 27.332031 7.332031 L 27.332031 5.332031 C 27.332031 4.964844 27.035156 4.667969 26.667969 4.667969 L 24.667969 4.667969 L 24.667969 1.332031 L 23.332031 1.332031 L 23.332031 4.667969 L 20.667969 4.667969 L 20.667969 1.332031 L 19.332031 1.332031 L 19.332031 4.667969 L 16.667969 4.667969 L 16.667969 1.332031 L 15.332031 1.332031 L 15.332031 4.667969 L 12.667969 4.667969 L 12.667969 1.332031 L 11.332031 1.332031 L 11.332031 4.667969 L 8.667969 4.667969 L 8.667969 1.332031 L 7.332031 1.332031 L 7.332031 4.667969 L 5.332031 4.667969 C 4.964844 4.667969 4.667969 4.964844 4.667969 5.332031 L 4.667969 7.332031 L 1.332031 7.332031 L 1.332031 8.667969 L 4.667969 8.667969 L 4.667969 11.332031 L 1.332031 11.332031 L 1.332031 12.667969 L 4.667969 12.667969 L 4.667969 15.332031 L 1.332031 15.332031 L 1.332031 16.667969 L 4.667969 16.667969 L 4.667969 19.332031 L 1.332031 19.332031 L 1.332031 20.667969 L 4.667969 20.667969 L 4.667969 23.332031 L 1.332031 23.332031 L 1.332031 24.667969 L 4.667969 24.667969 L 4.667969 26.667969 C 4.667969 27.035156 4.964844 27.332031 5.332031 27.332031 L 7.332031 27.332031 L 7.332031 30.667969 L 8.667969 30.667969 L 8.667969 27.332031 L 11.332031 27.332031 L 11.332031 30.667969 L 12.667969 30.667969 L 12.667969 27.332031 L 15.332031 27.332031 L 15.332031 30.667969 L 16.667969 30.667969 L 16.667969 27.332031 L 19.332031 27.332031 L 19.332031 30.667969 L 20.667969 30.667969 L 20.667969 27.332031 L 23.332031 27.332031 L 23.332031 30.667969 L 24.667969 30.667969 L 24.667969 27.332031 L 26.667969 27.332031 C 27.035156 27.332031 27.332031 27.035156 27.332031 26.667969 L 27.332031 24.667969 L 30.667969 24.667969 L 30.667969 23.332031 L 27.332031 23.332031 L 27.332031 20.667969 L 30.667969 20.667969 L 30.667969 19.332031 L 27.332031 19.332031 L 27.332031 16.667969 L 30.667969 16.667969 L 30.667969 15.332031 L 27.332031 15.332031 L 27.332031 12.667969 L 30.667969 12.667969 L 30.667969 11.332031 L 27.332031 11.332031 L 27.332031 8.667969 Z M 30.667969 8.667969 "/>
</svg>

<svg role="img" viewBox="0 0 32 32" height="32" width="32" xmlns="http://www.w3.org/2000/svg"><path d="M20.023 15.777c.196-.265.504-.398.918-.398.387 0 .739.113 1.055.336v2.566c-.348.239-.707.356-1.07.356-.801 0-1.196-.547-1.196-1.645 0-.547.098-.953.293-1.215m.555 3.727c.555 0 1.043-.188 1.465-.559l.113.457h.942v-6.906h-1.102v2.5a2.14 2.14 0 0 0-1.363-.484c-.414 0-.778.11-1.082.32-.305.215-.54.512-.7.895-.16.378-.242.816-.242 1.312 0 .754.18 1.356.536 1.797.359.445.835.668 1.433.668m-4.918-5.469-1.746.652v-.894l1.848-.86h1.008v6.47h-1.11Zm-2.894 5.367H8.902v-.812l2.653-3.098H8.996v-.84h3.742v.813l-2.652 3.098h2.68ZM6 26h20V6H6ZM30.668 8.668V7.332h-3.336v-2a.664.664 0 0 0-.664-.664h-2V1.332h-1.336v3.336h-2.664V1.332h-1.336v3.336h-2.664V1.332h-1.336v3.336h-2.664V1.332h-1.336v3.336H8.668V1.332H7.332v3.336h-2a.664.664 0 0 0-.664.664v2H1.332v1.336h3.336v2.664H1.332v1.336h3.336v2.664H1.332v1.336h3.336v2.664H1.332v1.336h3.336v2.664H1.332v1.336h3.336v2c0 .367.297.664.664.664h2v3.336h1.336v-3.336h2.664v3.336h1.336v-3.336h2.664v3.336h1.336v-3.336h2.664v3.336h1.336v-3.336h2.664v3.336h1.336v-3.336h2a.664.664 0 0 0 .664-.664v-2h3.336v-1.336h-3.336v-2.664h3.336v-1.336h-3.336v-2.664h3.336v-1.336h-3.336v-2.664h3.336v-1.336h-3.336V8.668Zm0 0" fill="rgb(83.137255%, 35.686275%, 2.745098%)" fill-rule="evenodd"/></svg>
